X: 22
T: Lark In The Morning, The
Z: JACKB
S: https://thesession.org/tunes/62#setting49104
R: jig
M: 6/8
L: 1/8
K: Dmaj
|:A3 AFA|B3 BdB|A3 AFA|fge fdB|
A3 AFA|GBB BAB|def afe|fdB BAB:|
|:def a3|baa afe|def afe|fdB BdB|
def a3|baf afe|fgg eff|edB BAB:|
|:d2f fef|fef fef|d2f fef|edB BAB|
d2f fef|fef def|g2e f2d|edB BdB:|
|:A2d fdd|edd fdB|A2d fdd|edB BAB|
A2d fdd|edB def|g2e f2d|edB BdB:|

